Sweet-Rainbow/icons/multimedia-photo-manager.svg

<?xml version="1.0" encoding="UTF-8" standalone="no"?>
<!-- Generator: Gravit.io -->

<svg
   xmlns:dc="http://purl.org/dc/elements/1.1/"
   xmlns:cc="http://creativecommons.org/ns#"
   xmlns:rdf="http://www.w3.org/1999/02/22-rdf-syntax-ns#"
   xmlns:svg="http://www.w3.org/2000/svg"
   xmlns="http://www.w3.org/2000/svg"
   xmlns:sodipodi="http://sodipodi.sourceforge.net/DTD/sodipodi-0.dtd"
   xmlns:inkscape="http://www.inkscape.org/namespaces/inkscape"
   style="isolation:isolate"
   viewBox="0 0 36 36"
   width="48"
   height="48"
   version="1.1"
   id="svg11"
   sodipodi:docname="multimedia-photo-manager.svg"
   inkscape:version="0.92.4 (5da689c313, 2019-01-14)">
  <metadata
     id="metadata17">
    <rdf:RDF>
      <cc:Work
         rdf:about="">
        <dc:format>image/svg+xml</dc:format>
        <dc:type
           rdf:resource="http://purl.org/dc/dcmitype/StillImage" />
        <dc:title></dc:title>
      </cc:Work>
    </rdf:RDF>
  </metadata>
  <defs
     id="defs15" />
  <sodipodi:namedview
     pagecolor="#ffffff"
     bordercolor="#666666"
     borderopacity="1"
     objecttolerance="10"
     gridtolerance="10"
     guidetolerance="10"
     inkscape:pageopacity="0"
     inkscape:pageshadow="2"
     inkscape:window-width="640"
     inkscape:window-height="480"
     id="namedview13"
     showgrid="false"
     inkscape:zoom="29.365243"
     inkscape:cx="25.325443"
     inkscape:cy="32"
     inkscape:current-layer="svg11"
     units="px" />
  <linearGradient
     id="_lgradient_5"
     x1="-0.014458464"
     y1="0.009839246"
     x2="1.0164566"
     y2="1.072293"
     gradientTransform="matrix(44.558,0,0,40.028,1.721,5.152)"
     gradientUnits="userSpaceOnUse">
    <stop
       offset="0%"
       stop-opacity="1"
       style="stop-color:rgb(249,212,35)"
       id="stop2" />
    <stop
       offset="51.56237565086822%"
       stop-opacity="1"
       style="stop-color:rgb(255,78,80)"
       id="stop4" />
    <stop
       offset="99.1304347826087%"
       stop-opacity="1"
       style="stop-color:rgb(138,35,135)"
       id="stop6" />
  </linearGradient>
  <g
     id="g825"
     transform="matrix(0.80793362,0,0,0.80793362,-1.3904538,-2.3323677)">
    <path
       id="path9"
       d="M 36.721,26.584 V 23 c 0,-1.104 -0.896,-2 -2,-2 h -13.09 v 0 c -1.104,0 -2,-0.896 -2,-2 v 0 c 0,-1.104 0.896,-2 2,-2 v 0 h 16.09 c 1.656,0 3,1.344 3,3 v 10.305 0 c 0.314,-0.288 0.526,-0.755 0.555,-1.325 L 42.123,12.822 C 42.181,11.72 41.333,10.778 40.231,10.72 L 13.268,9.307 c -1.103,-0.057 -2.09,0.787 -2.205,1.885 L 10.459,17 h 2.812 v 0 c 1.104,0 2,0.896 2,2 v 0 c 0,1.104 -0.896,2 -2,2 v 0 h -5.55 c -1.104,0 -2,0.896 -2,2 v 12.619 l 9.211,-7.8 c 1.263,-1.07 3.24,-0.988 4.41,0.182 l 5.232,5.232 c 0.39,0.39 1.084,0.464 1.547,0.165 l 10.1,-6.518 v 0 c 0.151,-0.134 0.321,-0.233 0.5,-0.296 z m 0,3.563 v 9.033 c 0,1.104 -0.896,2 -2,2 h -27 c -1.033,0 -1.884,-0.785 -1.986,-1.791 0.203,-0.055 0.388,-0.171 0.546,-0.329 v 0 l 10.166,-8.307 c 0.427,-0.349 1.091,-0.316 1.481,0.074 l 5.112,5.112 c 1.171,1.17 3.23,1.362 4.597,0.426 z m 4,4.572 v 7.461 c 0,1.656 -1.344,3 -3,3 h -33 c -1.656,0 -3,-1.344 -3,-3 V 20 c 0,-1.656 1.344,-3 3,-3 H 6.316 L 7.194,7.985 C 7.355,6.337 8.828,5.069 10.481,5.156 l 32.955,1.727 c 1.653,0.087 2.925,1.499 2.839,3.153 l -1.161,22.149 c -0.087,1.654 -1.493,2.85 -3.139,2.67 z m -13.5,-9.053 c 0,-1.38 1.12,-2.5 2.5,-2.5 1.38,0 2.5,1.12 2.5,2.5 0,1.38 -1.12,2.5 -2.5,2.5 -1.38,0 -2.5,-1.12 -2.5,-2.5 z"
       style="fill:url(#_lgradient_5);fill-rule:evenodd"
       inkscape:connector-curvature="0" />
  </g>
</svg>

<?xml version="1.0" encoding="UTF-8" standalone="no"?><!-- Generator: Gravit.io --><svg xmlns="http://www.w3.org/2000/svg" xmlns:xlink="http://www.w3.org/1999/xlink" style="isolation:isolate" viewBox="0 0 48 48" width="48pt" height="48pt"><linearGradient id="_lgradient_5" x1="-0.014458464773922156" y1="0.009839246119734024" x2="1.0164565923220248" y2="1.0722930524759795" gradientTransform="matrix(44.558,0,0,40.028,1.721,5.152)" gradientUnits="userSpaceOnUse"><stop offset="0%" stop-opacity="1" style="stop-color:rgb(249,212,35)"/><stop offset="51.56237565086822%" stop-opacity="1" style="stop-color:rgb(255,78,80)"/><stop offset="99.1304347826087%" stop-opacity="1" style="stop-color:rgb(138,35,135)"/></linearGradient><path d=" M 36.721 26.584 L 36.721 23 C 36.721 21.896 35.825 21 34.721 21 L 21.631 21 L 21.631 21 C 20.527 21 19.631 20.104 19.631 19 L 19.631 19 C 19.631 17.896 20.527 17 21.631 17 L 21.631 17 L 37.721 17 C 39.377 17 40.721 18.344 40.721 20 L 40.721 30.305 L 40.721 30.305 C 41.035 30.017 41.247 29.55 41.276 28.98 L 42.123 12.822 C 42.181 11.72 41.333 10.778 40.231 10.72 L 13.268 9.307 C 12.165 9.25 11.178 10.094 11.063 11.192 L 10.459 17 L 13.271 17 L 13.271 17 C 14.375 17 15.271 17.896 15.271 19 L 15.271 19 C 15.271 20.104 14.375 21 13.271 21 L 13.271 21 L 7.721 21 C 6.617 21 5.721 21.896 5.721 23 L 5.721 35.619 L 14.932 27.819 C 16.195 26.749 18.172 26.831 19.342 28.001 L 24.574 33.233 C 24.964 33.623 25.658 33.697 26.121 33.398 L 36.221 26.88 L 36.221 26.88 C 36.372 26.746 36.542 26.647 36.721 26.584 L 36.721 26.584 Z  M 36.721 30.147 L 36.721 39.18 C 36.721 40.284 35.825 41.18 34.721 41.18 L 7.721 41.18 C 6.688 41.18 5.837 40.395 5.735 39.389 C 5.938 39.334 6.123 39.218 6.281 39.06 L 6.281 39.06 L 16.447 30.753 C 16.874 30.404 17.538 30.437 17.928 30.827 L 23.04 35.939 C 24.211 37.109 26.27 37.301 27.637 36.365 L 36.721 30.147 L 36.721 30.147 Z  M 40.721 34.719 L 40.721 42.18 C 40.721 43.836 39.377 45.18 37.721 45.18 L 4.721 45.18 C 3.065 45.18 1.721 43.836 1.721 42.18 L 1.721 20 C 1.721 18.344 3.065 17 4.721 17 L 6.316 17 L 7.194 7.985 C 7.355 6.337 8.828 5.069 10.481 5.156 L 43.436 6.883 C 45.089 6.97 46.361 8.382 46.275 10.036 L 45.114 32.185 C 45.027 33.839 43.621 35.035 41.975 34.855 L 40.721 34.719 L 40.721 34.719 L 40.721 34.719 Z  M 27.221 25.666 C 27.221 24.286 28.341 23.166 29.721 23.166 C 31.101 23.166 32.221 24.286 32.221 25.666 C 32.221 27.046 31.101 28.166 29.721 28.166 C 28.341 28.166 27.221 27.046 27.221 25.666 Z " fill-rule="evenodd" fill="url(#_lgradient_5)"/></svg>
